UI/Core-UI/SVG/show-menu_solid_16px.svg

<svg xmlns="http://www.w3.org/2000/svg" width="16" height="16" viewBox="0 0 16 16"><rect width="16" height="16" transform="translate(16 16) rotate(180)" style="fill:none"/><path d="M2,13V11.5H8V13Zm7.67-2,1,1,4-4-4-4-1,1,2.25,2.25H2v1.5h9.92ZM8,3H2V4.5H8Z"/></svg>

<svg width="16" height="16" viewBox="0 0 16 16" fill="none" xmlns="http://www.w3.org/2000/svg">
<path d="M2 13V11.5H8V13H2ZM9.67 11L10.67 12L14.67 8L10.67 4L9.67 5L11.92 7.25H2V8.75H11.92L9.67 11ZM8 3H2V4.5H8V3Z" fill="#0F1621"/>
</svg>
